dist/images/shopping_cart.svg

<svg width="36" height="36" viewBox="0 0 36 36" fill="none" xmlns="http://www.w3.org/2000/svg">
<g clip-path="url(#clip0_3015_25)">
<path d="M10.5 27C8.85 27 7.515 28.35 7.515 30C7.515 31.65 8.85 33 10.5 33C12.15 33 13.5 31.65 13.5 30C13.5 28.35 12.15 27 10.5 27ZM1.5 3V6H4.5L9.9 17.385L7.875 21.06C7.635 21.48 7.5 21.975 7.5 22.5C7.5 24.15 8.85 25.5 10.5 25.5H28.5V22.5H11.13C10.92 22.5 10.755 22.335 10.755 22.125L10.8 21.945L12.15 19.5H23.325C24.45 19.5 25.44 18.885 25.95 17.955L31.32 8.22C31.44 8.01 31.5 7.755 31.5 7.5C31.5 6.675 30.825 6 30 6H7.815L6.405 3H1.5ZM25.5 27C23.85 27 22.515 28.35 22.515 30C22.515 31.65 23.85 33 25.5 33C27.15 33 28.5 31.65 28.5 30C28.5 28.35 27.15 27 25.5 27Z" fill="#2D2D2D"/>
<circle cx="29" cy="7" r="7" fill="white"/>
<path d="M31.867 10.39C32.0537 10.39 32.2007 10.4437 32.308 10.551C32.42 10.6537 32.476 10.7913 32.476 10.964V12H25.532V11.426C25.532 11.3093 25.5553 11.188 25.602 11.062C25.6533 10.9313 25.7327 10.8147 25.84 10.712L28.913 7.632C29.1697 7.37067 29.3983 7.121 29.599 6.883C29.8043 6.645 29.9747 6.40933 30.11 6.176C30.2453 5.94267 30.348 5.707 30.418 5.469C30.4927 5.22633 30.53 4.972 30.53 4.706C30.53 4.46333 30.495 4.251 30.425 4.069C30.355 3.88233 30.2547 3.726 30.124 3.6C29.998 3.474 29.844 3.38067 29.662 3.32C29.4847 3.25467 29.284 3.222 29.06 3.222C28.8547 3.222 28.6633 3.25233 28.486 3.313C28.3133 3.369 28.1593 3.45067 28.024 3.558C27.8887 3.66067 27.7743 3.782 27.681 3.922C27.5877 4.062 27.5177 4.216 27.471 4.384C27.3917 4.59867 27.289 4.741 27.163 4.811C27.037 4.881 26.855 4.89733 26.617 4.86L25.707 4.699C25.777 4.21367 25.9123 3.789 26.113 3.425C26.3137 3.05633 26.5633 2.75067 26.862 2.508C27.1653 2.26067 27.5107 2.07633 27.898 1.955C28.29 1.829 28.71 1.766 29.158 1.766C29.6247 1.766 30.0517 1.836 30.439 1.976C30.8263 2.11133 31.1577 2.305 31.433 2.557C31.7083 2.809 31.923 3.11233 32.077 3.467C32.231 3.82167 32.308 4.216 32.308 4.65C32.308 5.02333 32.252 5.36867 32.14 5.686C32.0327 6.00333 31.8857 6.30667 31.699 6.596C31.517 6.88533 31.3023 7.16533 31.055 7.436C30.8077 7.70667 30.5487 7.982 30.278 8.262L27.996 10.593C28.2153 10.5277 28.4323 10.4787 28.647 10.446C28.8663 10.4087 29.074 10.39 29.27 10.39H31.867Z" fill="#3670C7"/>
</g>
<defs>
<clipPath id="clip0_3015_25">
<rect width="36" height="36" fill="white"/>
</clipPath>
</defs>
</svg>

<svg width="36" height="36" fill="none" xmlns="http://www.w3.org/2000/svg"><g clip-path="url(#a)"><path d="M10.5 27a2.996 2.996 0 0 0-2.985 3c0 1.65 1.335 3 2.985 3s3-1.35 3-3-1.35-3-3-3Zm-9-24v3h3l5.4 11.385-2.025 3.675A2.9 2.9 0 0 0 7.5 22.5c0 1.65 1.35 3 3 3h18v-3H11.13a.371.371 0 0 1-.375-.375l.045-.18 1.35-2.445h11.175a2.986 2.986 0 0 0 2.625-1.545l5.37-9.735c.12-.21.18-.465.18-.72 0-.825-.675-1.5-1.5-1.5H7.815l-1.41-3H1.5Zm24 24a2.996 2.996 0 0 0-2.985 3c0 1.65 1.335 3 2.985 3s3-1.35 3-3-1.35-3-3-3Z" fill="#2D2D2D"/><circle cx="29" cy="7" r="7" fill="#fff"/><path d="M31.867 10.39c.187 0 .334.054.441.161.112.103.168.24.168.413V12h-6.944v-.574a.974.974 0 0 1 .308-.714l3.073-3.08c.257-.261.485-.511.686-.749a4.7 4.7 0 0 0 .511-.707c.135-.233.238-.469.308-.707.075-.243.112-.497.112-.763a1.77 1.77 0 0 0-.105-.637 1.25 1.25 0 0 0-.301-.469 1.161 1.161 0 0 0-.462-.28 1.733 1.733 0 0 0-.602-.098c-.205 0-.397.03-.574.091a1.461 1.461 0 0 0-.462.245c-.135.103-.25.224-.343.364a1.6 1.6 0 0 0-.21.462c-.08.215-.182.357-.308.427s-.308.086-.546.049l-.91-.161c.07-.485.205-.91.406-1.274.2-.369.45-.674.749-.917a3.078 3.078 0 0 1 1.036-.553 4.094 4.094 0 0 1 1.26-.189c.467 0 .894.07 1.281.21.387.135.719.329.994.581.275.252.49.555.644.91.154.355.231.749.231 1.183 0 .373-.056.719-.168 1.036a4.09 4.09 0 0 1-.441.91c-.182.29-.397.57-.644.84s-.506.546-.777.826l-2.282 2.331c.22-.065.436-.114.651-.147.22-.037.427-.056.623-.056h2.597Z" fill="#3670C7"/></g><defs><clipPath id="a"><path fill="#fff" d="M0 0h36v36H0z"/></clipPath></defs></svg>
